src/beverage.svg

<?xml version="1.0" encoding="UTF-8" standalone="no"?>
<svg width="20px" height="20px" viewBox="0 0 20 20" version="1.1" xmlns="http://www.w3.org/2000/svg" xmlns:xlink="http://www.w3.org/1999/xlink">
    <!-- Generator: Sketch 3.7.2 (28276) - http://www.bohemiancoding.com/sketch -->
    <title>beverage</title>
    <desc>Created with Sketch.</desc>
    <defs></defs>
    <g id="Page-1" stroke="none" stroke-width="1" fill="none" fill-rule="evenodd">
        <g id="beverage" fill="#000000">
            <path d="M9,18 L9,11 L0,2 L0,0 L20,0 L20,2 L11,11 L11,18 L16,19 L16,20 L4,20 L4,19 L9,18 Z M11,8 C12.1045695,8 13,7.1045695 13,6 C13,4.8954305 12.1045695,4 11,4 C9.8954305,4 9,4.8954305 9,6 C9,7.1045695 9.8954305,8 11,8 Z" id="Combined-Shape"></path>
        </g>
    </g>
</svg>

<svg xmlns="http://www.w3.org/2000/svg" viewBox="0 0 20 20"><path d="M9 18v-7L0 2V0h20v2l-9 9v7l5 1v1H4v-1l5-1zm2-10a2 2 0 1 0 0-4 2 2 0 0 0 0 4z"/></svg>
